X:3604
T:Leaving of Liverpool
O:england
C:anon.
M:C
L:1/8
Q:1/4=108
K:C
(CD)|:"C"E3G (FE) (DC)|"F"c2 (cA) "C"G2 CD|[1"C"E3G "F"(AG) (FE)|
w:Fare-_well to you,_ my_ own true_ love, I am go-ing far_ a-_
w:  bound for Ca-_li-_for-ni-_a, but I
"G"D4 z2 GF:|[2"C"EG GE "G"D3C|"C"C4 z2 (Bc)||"G"d3B G2(Bc)|
w:way. I am know that I'll re-turn some day. So_ fare the well, my_
"F"c3A "C"G3F|"C"EG G>G "F"AG FE|"G"D4 z G GF|
w:own true love, when I re-turn u-nit-ed we will be. It's not the
"C"E2 EG FE DC|"F"c3A "C"G2CD|"C"EG GE "G"D3C|"C"C4 z2|]
w:leav-ing of Liv-er-pool that griev-es me, but my darl-ing, when I think of thee.
W:
W:Farewell to you, my own true love,
W:I am going far away.
W:I am bound for California,
W:but I know that I'll return some day.
W:  So fare the well, my own true love,
W:  when I return united we will be.
W:  It's not the leaving of Liverpool that grieves me,
W:  but my darling, when I think of thee.


